X: 3
T: The Moving Bogs
R: reel
M: 4/4
L: 1/8
K: Dmaj
d2Ac d2Ac|dcdf ecAc|dcdA BAGF|EFGA FDD2:|defg afdf|g2bg ecAc|defg afdf|efge fdd2|defg afdf|g2bg ecAc|dedA BAGF|EFGA FDD2||


Tune 716	Setting 23225

